X:1
T:Sanct Georg auff seinen
T:André Vierendeels
T:Melody by Georg Vogler (1625) (Soprano voice) 
T:Source : Catechismus---Würzburg---J.Volmari---1652. Editor : André Vierendeels (30/09/17).
T:Notes : Original clef : C1, other voices supplied editorially Original note values have been halved Text Middle German 
T:Sanct Georg auff seinen 
T:©
T:©
C:André Vierendeels
Z:©
%%score [ 1 2 3 ]
L:1/8
Q:1/4=90
M:2/2
K:C
V:1 treble nm="Soprano" snm="S"
V:2 treble-8 nm="Tenor" snm="T"
V:3 bass nm="Bass" snm="B"
V:1
"^1)" D4 F2 G2 | A4 d4 | c2 B2 A4 | B3 A d2 A2 | c2 B2 A4 | z4 z2 d2 | d2 d2 e2 d2- | d2 c2 B2 A2 | %8
w: Sanct Georg auff|sei- nem|e- * lend|Pferdt, _ _ Al-|le- lu- ja.|Der|ist ja al- ler|_ Eh- ren werth,|
w: Den Dra- *|chen er|mit Macht er-|legt, _ _ durchs|hei- lig Creutz|das|ihn er- schreckt Sanct|_ Georg der ist|
 A2 B2 c2 d2- | dA c2 B2 A2- | AA A2 G2 F2 | E4 G2 A2 | B8 |] %13
w: al- le- lu- ja,|_ ge- lobt sey Gott|_ und Ma- ri- a,|Al- le- lu-|ja.|
w: ge- boh- ren ja,|_ ein Christ in Ca-|* pa- do- ci- a,|Al- le- lu-|ja.|
V:2
"^2)""^1)" A4 d2 B2 | c4 A4 | e2 d2 f2 A2 | d4 z2 f2 | e2 d2 f4 | A4 d4 | f2 F2 G2 E2 | G4 E2 E2 | %8
w: Sanct Georg auff|sei- nem|e- * * lend|Pferdt, Al-|le- lu- ja.|Der ist|ja _ al- ler|Eh- ren werth,|
w: Von gu- ten|Gschlegt Stam-|* * men und|Blut, Al-|le- lu- ia,|ver- mög-|lich _ reich an|Haab und Gut,|
 c2 G2 G2 G2 | A2 E2 G2 F2 | d2 c2 B2 c2 | B2 G2 c2 A2 | ^G8 |] %13
w: Al- le- lu- ja,|ge- lobt sey Gott|und Ma- ri- a,|Al- le- * lu-|ja.|
w: Al- le- lu- ja,|der Key- ser Di-|o- cle- ti- an,|Al- le- * lu-|ja.|
V:3
"^3)""^1)""^4)" D,4 D,2 E,2 | A,,4 D,4 | E,2 G,2 D,4 | G,,4 z2 D,2 | C,2 G,2 F,4 | D,4 G,,4 | %6
w: Sanct Georg auff|sei- nem|e- * lend|Pferth, Al-|le- lu- ja.|Der ist|
w: Nam sich starck|und Sanckt|Ge- or- gen|an, Al-|le- lu- ja.|Haupt- mann-|
 D,4 C,2 B,,2 | G,,2 C,2 E,2 A,,2 | F,,2 G,,2 C,2 B,,2 | D,2 C,2 D,2 F,2 | D,2 F,2 G,2 A,2 | %11
w: ja al- ler|Eh- * ren werth,|Al- le- lu- ja,|ge- lobt sey Gott|und Ma- ri- a,|
w: schafft er im|Krieg _ ge- führt,|Al- le- lu- ja,|der Key- ser ihn|noch hö- her ziert,|
 E,2 E,4 C,2 | E,8 |] %13
w: Al- le- lu-|ja.|
w: Al- le- lu-|ja.|

